svg/clockface/clockface/clock_05_50.svg

<?xml version="1.0" encoding="UTF-8" standalone="no"?>
<svg
   height="1000"
   width="1000"
   version="1.1"
   id="clock"
   viewBox="0 0 1000 1000"
   sodipodi:docname="clock_05_50.svg"
   xmlns:inkscape="http://www.inkscape.org/namespaces/inkscape"
   xmlns:sodipodi="http://sodipodi.sourceforge.net/DTD/sodipodi-0.dtd"
   xmlns="http://www.w3.org/2000/svg"
   xmlns:svg="http://www.w3.org/2000/svg">
  <defs
     id="defs10" />
  <sodipodi:namedview
     id="namedview8"
     pagecolor="#505050"
     bordercolor="#ffffff"
     borderopacity="1"
     inkscape:showpageshadow="0"
     inkscape:pageopacity="0"
     inkscape:pagecheckerboard="1"
     inkscape:deskcolor="#505050" />
  <g
     id="container">
    <g
       transform="translate(500,500) rotate(270)"
       id="g4">
      <path
         id="clock_05_50"
         style="color:#000000;fill:#000000;stroke-linecap:round;stroke-linejoin:round;-inkscape-stroke:none"
         d="m 138.91602,-263.57031 a 30,30 0 0 0 -29.89649,14.74414 L -21.960937,-21.960937 -170.88477,64.019531 A 30,30 0 0 0 -181.86523,105 a 30,30 0 0 0 40.98046,10.98047 L 15,25.980469 A 30.003,30.003 0 0 0 25.980469,15 L 160.98047,-218.82617 A 30,30 0 0 0 150,-259.80859 30,30 0 0 0 138.91602,-263.57031 Z M 370,0 C 370,-203.98981 203.98981,-370 0,-370 -203.98981,-370 -370,-203.98981 -370,0 -370,203.98981 -203.98981,370 0,370 203.98981,370 370,203.98981 370,0 Z M 310,0 C 310,171.56344 171.56344,310 0,310 -171.56344,310 -310,171.56344 -310,0 c 0,-171.56344 138.43656,-310 310,-310 171.56344,0 310,138.43656 310,310 z" />
    </g>
  </g>
</svg>

<svg xmlns="http://www.w3.org/2000/svg" width="1000" height="1000"><path d="M138.916-263.57a30 30 0 0 0-29.896 14.744L-21.96-21.961l-148.925 85.98A30 30 0 0 0-181.865 105a30 30 0 0 0 40.98 10.98L15 25.98A30.003 30.003 0 0 0 25.98 15l135-233.826A30 30 0 0 0 150-259.81a30 30 0 0 0-11.084-3.761ZM370 0c0-203.99-166.01-370-370-370S-370-203.99-370 0-203.99 370 0 370 370 203.99 370 0Zm-60 0c0 171.563-138.437 310-310 310S-310 171.563-310 0-171.563-310 0-310 310-171.563 310 0z" style="-inkscape-stroke:none" transform="rotate(-90 500 0)" stroke-linecap="round" stroke-linejoin="round"/></svg>
